images/ic_syarat.svg

<svg width="18" height="18" viewBox="0 0 18 18" fill="none" xmlns="http://www.w3.org/2000/svg">
<path d="M15.4316 12.375C15.8199 12.375 16.1347 12.0602 16.1347 11.6719V2.8125C16.1347 1.26169 14.873 0 13.3222 0H4.67773C3.12692 0 1.86523 1.26169 1.86523 2.8125V15.1875C1.86523 16.7383 3.12692 18 4.67773 18H13.3222C14.8731 18 16.1347 16.7383 16.1348 15.1875C16.1348 14.7992 15.82 14.4844 15.4316 14.4844C15.0433 14.4844 14.7285 14.7992 14.7285 15.1875C14.7285 15.9629 14.0977 16.5938 13.3223 16.5938H4.67773C3.90233 16.5938 3.27148 15.9629 3.27148 15.1875V2.8125C3.27148 2.03709 3.90233 1.40625 4.67773 1.40625H13.3223C14.0977 1.40625 14.7285 2.03709 14.7285 2.8125V11.6719C14.7285 12.0602 15.0433 12.375 15.4316 12.375Z" fill="#979797"/>
<path d="M12.6191 4.21875H5.37695C4.98862 4.21875 4.67383 4.53354 4.67383 4.92188C4.67383 5.31021 4.98862 5.625 5.37695 5.625H12.6191C13.0075 5.625 13.3223 5.31021 13.3223 4.92188C13.3223 4.53354 13.0074 4.21875 12.6191 4.21875Z" fill="#979797"/>
<path d="M12.6191 7.03125H5.37695C4.98862 7.03125 4.67383 7.34604 4.67383 7.73438C4.67383 8.12271 4.98862 8.4375 5.37695 8.4375H12.6191C13.0075 8.4375 13.3223 8.12271 13.3223 7.73438C13.3223 7.34604 13.0074 7.03125 12.6191 7.03125Z" fill="#979797"/>
<path d="M9.77535 9.84375H5.37695C4.98862 9.84375 4.67383 10.1585 4.67383 10.5469C4.67383 10.9352 4.98862 11.25 5.37695 11.25H9.77542C10.1638 11.25 10.4785 10.9352 10.4785 10.5469C10.4785 10.1585 10.1637 9.84375 9.77535 9.84375Z" fill="#979797"/>
</svg>

<svg xmlns="http://www.w3.org/2000/svg" xmlns:xlink="http://www.w3.org/1999/xlink" viewBox="0 0 18 18"><g fill="#979797"><path d="M15.432 12.375c.388 0 .703-.315.703-.703v-8.86c0-1.55-1.262-2.812-2.813-2.812H4.678c-1.55 0-2.812 1.262-2.812 2.813v12.375c0 1.55 1.262 2.813 2.813 2.813h8.645c1.55 0 2.813-1.262 2.813-2.812 0-.388-.315-.703-.703-.703s-.703.315-.703.703a1.41 1.41 0 0 1-1.406 1.406H4.678a1.41 1.41 0 0 1-1.406-1.406V2.813a1.41 1.41 0 0 1 1.406-1.406h8.645a1.41 1.41 0 0 1 1.406 1.406v8.86c0 .388.315.703.703.703z"/><use xlink:href="#B"/><use xlink:href="#B" y="2.81"/><path d="M9.775 9.844H5.377c-.388 0-.703.315-.703.703s.315.703.703.703h4.398c.388 0 .703-.315.703-.703s-.315-.703-.703-.703z"/></g><defs ><path id="B" d="M12.62 4.22H5.377c-.388 0-.703.315-.703.703s.315.703.703.703h7.242c.388 0 .703-.315.703-.703s-.315-.703-.703-.703z"/></defs></svg>
